X: 52
T:Free Trade
R:reel
C:Emile Benoit
M:C|
L:1/8
Z:Gerry Strong
K:C
|:Gccd e2 cd|ecdc Ac G2|Gccd e2 ee|gedc d2 d2|Gccde2 cd|ecdc Ac G2|Gccd
e2 ee|ge d2 c4:|
|:eaag e2 cd|e2 AA A2G2|Gccd e2 ee|gedc d2 d2|eaag e2 cd|e2 AA A2G2|Gccd
e2 ee|ge d2 c4:|
<end>
<start>
